queue-first-in-last-out.svg

<svg fill="currentColor" viewBox="0 0 24 24"><path d="M6 6h12v2H6zm0 4.5h12v2H6zM6 15h12v2H6zm3 4h6l-3 3zM9 2h6l-3 3z"/></svg>

<svg  viewBox="0 0 24 24" fill="currentColor"><path  d="M6 6H18V8H6V6M6 10.5H18V12.5H6V10.5M6 15H18V17H6V15M9 19H15L12 22L9 19M9 2H15L12 5L9 2Z"/></svg>
